X:1
T:Madrid, 66.66 D
T:Traditional Spanish melody
T:Madrid, 66.66 D
T:Courtesy of the Cyber Hymnal&amp;#8482;
C:Traditional Spanish melody
Z:Courtesy of the Cyber Hymnal&#8482;
%%score ( 1 2 ) ( 3 4 )
L:1/8
M:4/4
K:Ab
V:1 treble 
V:2 treble 
V:3 bass 
V:4 bass 
V:1
 x8 |: [EA]4 [EG]2 [EA]2 | [DF]2 [DA]2 [CE]4 | [Ec]2 [EA]2 [Fd]2 [FB]2 | ([EA]2 [DG]2) [CA]4 :| %5
 [Ec]4 [EB]2 [Ec]2 | [Fd]2 [Ec]2 [EB]4 | [Ec]4 [EB]2 [Ec]2 | [Dd]2 [Ec]2 [EB]4 | %9
 (E2 A,2) [B,G]2 [EA]2 | F2 [DA]2 E4 | [Ec]2 [FA]2 [Fd]2 [FB]2 | ([EA]2 [DG]2) [CA]4 |] %13
V:2
 x8 |: x8 | x8 | x8 | x8 :| x8 | x8 | x8 | x8 | A4 x4 | F2 E4 x2 | x8 | x8 |] %13
V:3
 x8 |: [A,,C]4 [E,B,]2 [C,A,]2 | [D,A,]2 [F,A,]2 A,4 | A,2 [A,C]2 [D,B,]2 [D,D]2 | %4
 (C2 B,2) [A,,A,]4 :| A,4 [G,D]2 [A,C]2 | [F,A,]2 A,2 [E,G,]4 | [A,,A,]4 (E,D,) [C,A,]2 | %8
 [B,,F,]2 (C,D,) [E,G,]4 | ([A,,C]2 [C,E]2) [B,,D]2 [A,,C]2 | [D,A,]2 [F,A,]2 ([G,B,]2 [E,G,]2) | %11
 A,2 [F,C]2 [D,B,]2 [D,D]2 | (C2 B,2) [A,,A,]4 |] %13
V:4
 x8 |: x8 | x4 A,4 | A,2 x6 | E,4 x4 :| A,4 x4 | x2 A,2 x4 | x4 G,2 x2 | x2 A,2 x4 | x8 | x8 | x8 | %12
 E,4 x4 |] %13

